nuxtjs.org/static/img/home/discover/dx/seo.svg

<svg width="75" height="75" fill="none" xmlns="http://www.w3.org/2000/svg"><mask id="a" maskUnits="userSpaceOnUse" x="0" y="4" width="75" height="69"><path d="M1.91487 45.6651L13.497 65.8046v-.0247c1.2621 2.1807 3.0726 3.9914 5.2508 5.2516 2.1782 1.2601 4.6479 1.9257 7.1627 1.9302h23.179c2.5149-.004 4.9848-.6694 7.1631-1.9296s3.9887-3.0712 5.2505-5.2522l11.582-20.1148C74.3397 43.4796 75 41.0023 75 38.4808c0-2.5215-.6603-4.9988-1.9149-7.1842l-11.582-20.1148c-1.2631-2.18321-3.0758-3.99561-5.2569-5.25595C54.0651 4.6655 51.5922 4.00141 49.0747 4H25.9105c-2.5148.0045-4.9845.67002-7.1627 1.93019-2.1782 1.26016-3.9887 3.07091-5.2508 5.25161L1.91487 31.2966C.660299 33.482 0 35.9593 0 38.4808c0 2.5215.660299 4.9988 1.91487 7.1843z" fill="#00DC82"/></mask><g mask="url(#a)"><path d="M1.91487 45.6651L13.497 65.8046v-.0247c1.2621 2.1807 3.0726 3.9914 5.2508 5.2516 2.1782 1.2601 4.6479 1.9257 7.1627 1.9302h23.179c2.5149-.004 4.9848-.6694 7.1631-1.9296s3.9887-3.0712 5.2505-5.2522l11.582-20.1148C74.3397 43.4796 75 41.0023 75 38.4808c0-2.5215-.6603-4.9988-1.9149-7.1842l-11.582-20.1148c-1.2631-2.18321-3.0758-3.99561-5.2569-5.25595C54.0651 4.6655 51.5922 4.00141 49.0747 4H25.9105c-2.5148.0045-4.9845.67002-7.1627 1.93019-2.1782 1.26016-3.9887 3.07091-5.2508 5.25161L1.91487 31.2966C.660299 33.482 0 35.9593 0 38.4808c0 2.5215.660299 4.9988 1.91487 7.1843z" fill="#00DC82"/><path opacity=".3" d="M-8.08513 45.6668L3.49695 65.8063v-.0247c1.26216 2.1807 3.07265 3.9914 5.25083 5.2516 2.17822 1.2601 4.64792 1.9257 7.16272 1.9302h23.179c2.5149-.004 4.9848-.6694 7.1631-1.9296s3.9887-3.0712 5.2505-5.2522l11.582-20.1148C64.3397 43.4813 65 41.004 65 38.4825c0-2.5215-.6603-4.9988-1.9149-7.1842l-11.582-20.1148c-1.2631-2.1832-3.0758-3.9956-5.2569-5.25594-2.1811-1.26035-4.654-1.92444-7.1715-1.92585H15.9105c-2.5148.00449-4.9845.67002-7.16272 1.93019-2.17818 1.26016-3.98867 3.07091-5.25083 5.2516L-8.08513 31.2983C-9.3397 33.4837-10 35.961-10 38.4825c0 2.5215.6603 4.9988 1.91487 7.1843z" fill="#fff"/><path d="M51.592 50.9369l-5.8422-5.8412c-.2637-.2637-.6212-.4101-.9962-.4101h-.9551c1.6173-2.0682 2.5783-4.6695 2.5783-7.4993C46.3768 30.4545 40.9213 25 34.1884 25S22 30.4545 22 37.1863c0 6.7318 5.4555 12.1863 12.1884 12.1863 2.8303 0 5.432-.9608 7.5005-2.5779v.955c0 .375.1465.7324.4102.996l5.8423 5.8413c.5508.5507 1.4415.5507 1.9864 0l1.6583-1.6581c.5509-.5507.5509-1.4413.0059-1.992zm-17.4036-6.2513c-4.1429 0-7.5006-3.3513-7.5006-7.4993 0-4.1422 3.3518-7.4993 7.5006-7.4993 4.1429 0 7.5005 3.3513 7.5005 7.4993 0 4.1422-3.3518 7.4993-7.5005 7.4993z" fill="#B9FFE2"/></g></svg>

<svg width="75" height="75" viewBox="0 0 75 75" fill="none" xmlns="http://www.w3.org/2000/svg">
<mask id="mask0" mask-type="alpha" maskUnits="userSpaceOnUse" x="0" y="4" width="75" height="69">
<path d="M1.91487 45.6651L13.497 65.8046V65.7799C14.7591 67.9606 16.5696 69.7713 18.7478 71.0315C20.926 72.2916 23.3957 72.9572 25.9105 72.9617H49.0895C51.6044 72.9577 54.0743 72.2923 56.2526 71.0321C58.4309 69.7719 60.2413 67.9609 61.5031 65.7799L73.0851 45.6651C74.3397 43.4796 75 41.0023 75 38.4808C75 35.9593 74.3397 33.482 73.0851 31.2966L61.5031 11.1818C60.24 8.99859 58.4273 7.18619 56.2462 5.92585C54.0651 4.6655 51.5922 4.00141 49.0747 4H25.9105C23.3957 4.0045 20.926 4.67002 18.7478 5.93019C16.5696 7.19035 14.7591 9.0011 13.497 11.1818L1.91487 31.2966C0.660299 33.482 0 35.9593 0 38.4808C0 41.0023 0.660299 43.4796 1.91487 45.6651Z" fill="#00DC82"/>
</mask>
<g mask="url(#mask0)">
<path d="M1.91487 45.6651L13.497 65.8046V65.7799C14.7591 67.9606 16.5696 69.7713 18.7478 71.0315C20.926 72.2916 23.3957 72.9572 25.9105 72.9617H49.0895C51.6044 72.9577 54.0743 72.2923 56.2526 71.0321C58.4309 69.7719 60.2413 67.9609 61.5031 65.7799L73.0851 45.6651C74.3397 43.4796 75 41.0023 75 38.4808C75 35.9593 74.3397 33.482 73.0851 31.2966L61.5031 11.1818C60.24 8.99859 58.4273 7.18619 56.2462 5.92585C54.0651 4.6655 51.5922 4.00141 49.0747 4H25.9105C23.3957 4.0045 20.926 4.67002 18.7478 5.93019C16.5696 7.19035 14.7591 9.0011 13.497 11.1818L1.91487 31.2966C0.660299 33.482 0 35.9593 0 38.4808C0 41.0023 0.660299 43.4796 1.91487 45.6651Z" fill="#00DC82"/>
<path opacity="0.3" d="M-8.08513 45.6668L3.49695 65.8063V65.7816C4.75911 67.9623 6.5696 69.773 8.74778 71.0332C10.926 72.2933 13.3957 72.9589 15.9105 72.9634H39.0895C41.6044 72.9594 44.0743 72.294 46.2526 71.0338C48.4309 69.7736 50.2413 67.9626 51.5031 65.7816L63.0851 45.6668C64.3397 43.4813 65 41.004 65 38.4825C65 35.961 64.3397 33.4837 63.0851 31.2983L51.5031 11.1835C50.24 9.0003 48.4273 7.1879 46.2462 5.92756C44.0651 4.66721 41.5922 4.00312 39.0747 4.00171H15.9105C13.3957 4.0062 10.926 4.67173 8.74778 5.9319C6.5696 7.19206 4.75911 9.00281 3.49695 11.1835L-8.08513 31.2983C-9.3397 33.4837 -10 35.961 -10 38.4825C-10 41.004 -9.3397 43.4813 -8.08513 45.6668Z" fill="white"/>
<path d="M51.592 50.9369L45.7498 45.0957C45.4861 44.832 45.1286 44.6856 44.7536 44.6856H43.7985C45.4158 42.6174 46.3768 40.0161 46.3768 37.1863C46.3768 30.4545 40.9213 25 34.1884 25C27.4555 25 22 30.4545 22 37.1863C22 43.9181 27.4555 49.3726 34.1884 49.3726C37.0187 49.3726 39.6204 48.4118 41.6889 46.7947V47.7497C41.6889 48.1247 41.8354 48.4821 42.0991 48.7457L47.9414 54.587C48.4922 55.1377 49.3829 55.1377 49.9278 54.587L51.5861 52.9289C52.137 52.3782 52.137 51.4876 51.592 50.9369ZM34.1884 44.6856C30.0455 44.6856 26.6878 41.3343 26.6878 37.1863C26.6878 33.0441 30.0397 29.687 34.1884 29.687C38.3313 29.687 41.6889 33.0383 41.6889 37.1863C41.6889 41.3285 38.3371 44.6856 34.1884 44.6856Z" fill="#A8FFE8"/>
</g>
</svg>
